Papirus/64x64/mimetypes/text-x-csrc.svg

<svg width="64" height="64" version="1.1" xmlns="http://www.w3.org/2000/svg">
 <path d="m12.75 5c-1.5235 0-2.75 1.2488-2.75 2.8v50.4c0 1.55008 1.2265 2.8 2.75 2.8h38.5c1.5224 0 2.75-1.24992 2.75-2.8v-35.2l-14-4-4-14z" style="opacity:.2"/>
 <path d="m12.75 4c-1.5235 0-2.75 1.2488-2.75 2.8v50.4c0 1.55008 1.2265 2.8 2.75 2.8h38.5c1.5224 0 2.75-1.24992 2.75-2.8v-35.2l-14-4-4-14z" style="fill:#4094e1"/>
 <path d="m54 23-18-18v15.1875c0 1.55925 1.2555 2.8125 2.8125 2.8125z" style="opacity:.2"/>
 <path d="m54 22-18-18v15.1875c0 1.55925 1.2555 2.8125 2.8125 2.8125z" style="fill:#5faaf2"/>
 <path d="m12.75 4c-1.5235 0-2.75 1.2495812-2.75 2.8007812v1c0-1.5511999 1.2265-2.8007812 2.75-2.8007812h23.25v-1h-23.25z" style="fill:#ffffff;opacity:.1"/>
 <path d="m 38,34 v -0.142856 c 0,0 0,-2.857143 -6.000284,-2.857143 -5.792685,0 -5.999714,5.714285 -5.999716,10 C 26,45.285715 26.207031,51 31.999716,51 38,51 38,48.142858 38,48.142858 V 48" style="fill:none;stroke-linecap:square;stroke-width:4.00001;stroke:#ffffff"/>
</svg>

<svg xmlns="http://www.w3.org/2000/svg" width="64" height="64" version="1.1">
 <path style="opacity:0.2" d="M 12.75,5 C 11.2265,5 10,6.2488 10,7.8 v 50.4 c 0,1.55008 1.2265,2.8 2.75,2.8 h 38.5 C 52.7724,61 54,59.75008 54,58.2 V 23 L 40,19 36,5 Z"/>
 <path style="fill:#e4e4e4" d="M 12.75,4 C 11.2265,4 10,5.2488 10,6.8 v 50.4 c 0,1.55008 1.2265,2.8 2.75,2.8 h 38.5 C 52.7724,60 54,58.75008 54,57.2 V 22 L 40,18 36,4 Z"/>
 <path style="opacity:0.2" d="M 54,23 36,5 V 20.1875 C 36,21.74675 37.2555,23 38.8125,23 Z"/>
 <path style="fill:#fafafa" d="M 54,22 36,4 V 19.1875 C 36,20.74675 37.2555,22 38.8125,22 Z"/>
 <path style="opacity:0.2;fill:#ffffff" d="M 12.75 4 C 11.2265 4 10 5.2495812 10 6.8007812 L 10 7.8007812 C 10 6.2495813 11.2265 5 12.75 5 L 36 5 L 36 4 L 12.75 4 z"/>
 <path style="fill:#0180cd" d="m 31.601562,29 c -1.757142,0 -3.322724,0.512898 -4.484374,1.439453 -1.161651,0.926555 -1.87195,2.174142 -2.306641,3.431641 -0.869382,2.514998 -0.808593,5.228125 -0.808594,7.328125 0,2.1 -0.06594,4.722957 0.820313,7.160156 0.443127,1.218599 1.175037,2.425712 2.341796,3.300781 C 28.330822,52.535226 29.868229,53 31.601562,53 34.671457,53 36.694185,52.080717 37.8125,50.837891 38.930815,49.595064 39,48 39,48 v -2 h -4 v 2 c 0,0 0.0693,-0.09506 -0.162109,0.162109 C 34.606481,48.419283 33.930566,49 31.601562,49 c -1.066666,0 -1.628868,-0.234835 -2.037109,-0.541016 -0.408241,-0.30618 -0.727502,-0.760396 -0.984375,-1.466796 -0.513746,-1.412802 -0.578125,-3.692969 -0.578125,-5.792969 1e-6,-2.100001 0.05923,-4.486483 0.589844,-6.021485 0.265309,-0.767501 0.606182,-1.281633 1.019531,-1.611328 C 30.024677,33.236711 30.558705,33 31.601562,33 c 2.329004,0 3.004919,0.580717 3.236329,0.837891 C 35.0693,34.095064 35,34 35,34 v 2 h 4 v -2 c 0,0 -0.06918,-1.595064 -1.1875,-2.837891 C 36.694185,29.919283 34.671457,29 31.601562,29 Z"/>
</svg>
